images/usdp.svg

<svg height="250" viewBox="0 0 250 250" width="250" xmlns="http://www.w3.org/2000/svg" xmlns:xlink="http://www.w3.org/1999/xlink"><radialGradient id="a" cx="8.25" cy="164.925003125" gradientUnits="userSpaceOnUse" r="199.981250625"><stop offset=".09" stop-color="#00522c"/><stop offset="1" stop-color="#00522c" stop-opacity="0"/></radialGradient><radialGradient id="b" cx="238.137493125" cy="80.337495625" gradientUnits="userSpaceOnUse" r="199.981250625"><stop offset="0" stop-color="#8ad137"/><stop offset="1" stop-color="#8ad137" stop-opacity="0"/></radialGradient><path d="m250 125c0 69.035156-55.964844 125-125 125s-125-55.964844-125-125 55.964844-125 125-125 125 55.964844 125 125zm0 0" fill="#00a64f"/><path d="m250 125c0 69.035156-55.964844 125-125 125s-125-55.964844-125-125 55.964844-125 125-125 125 55.964844 125 125zm0 0" fill="url(#a)"/><path d="m250 125c0 69.035156-55.964844 125-125 125s-125-55.964844-125-125 55.964844-125 125-125 125 55.964844 125 125zm0 0" fill="url(#b)"/><path d="m147.5625 115.492188h-10.625v-31.167969h46.3125v-19.125h-46.289062v-29.957031h-23.890626v30.078124h-10.078124c-21.78125 0-39.941407 11.003907-39.941407 35 0 20.984376 15.925781 34.191407 39.375 34.191407h10.625v31.164062h-46.300781v19.125h46.289062v29.960938h23.890626v-30.082031h10.078124c21.78125 0 39.941407-11.003907 39.941407-35 0-20.980469-15.925781-34.1875-39.386719-34.1875zm-34.523438 19.007812v-19h-7.539062c-10.117188 0-18.355469-4.261719-18.355469-15.625 0-11.25 7.8125-15.523438 18.855469-15.523438h7.070312v31.167969h23.859376v18.980469zm30.960938 31.175781h-7.070312v-31.167969h7.570312c10.117188 0 18.355469 4.261719 18.355469 15.625 0 11.292969-7.8125 15.542969-18.855469 15.542969zm0 0" fill="#fff"/></svg>

<svg xmlns="http://www.w3.org/2000/svg" xmlns:xlink="http://www.w3.org/1999/xlink" width="250px" height="250px" viewBox="0 0 250 250" version="1.1">
<defs>
<radialGradient id="radial0" gradientUnits="userSpaceOnUse" cx="13.2" cy="263.880005" fx="13.2" fy="263.880005" r="319.970001" gradientTransform="matrix(0.625,0,0,0.625,0,0)">
<stop offset="0.09" style="stop-color:rgb(0%,32.156864%,17.254902%);stop-opacity:1;"/>
<stop offset="1" style="stop-color:rgb(0%,32.156864%,17.254902%);stop-opacity:0;"/>
</radialGradient>
<radialGradient id="radial1" gradientUnits="userSpaceOnUse" cx="381.019989" cy="128.539993" fx="381.019989" fy="128.539993" r="319.970001" gradientTransform="matrix(0.625,0,0,0.625,0,0)">
<stop offset="0" style="stop-color:rgb(54.11765%,81.960785%,21.568628%);stop-opacity:1;"/>
<stop offset="1" style="stop-color:rgb(54.11765%,81.960785%,21.568628%);stop-opacity:0;"/>
</radialGradient>
</defs>
<g id="surface1">
<path style=" stroke:none;fill-rule:nonzero;fill:rgb(0%,65.098041%,30.980393%);fill-opacity:1;" d="M 250 125 C 250 194.035156 194.035156 250 125 250 C 55.964844 250 0 194.035156 0 125 C 0 55.964844 55.964844 0 125 0 C 194.035156 0 250 55.964844 250 125 Z M 250 125 "/>
<path style=" stroke:none;fill-rule:nonzero;fill:url(#radial0);" d="M 250 125 C 250 194.035156 194.035156 250 125 250 C 55.964844 250 0 194.035156 0 125 C 0 55.964844 55.964844 0 125 0 C 194.035156 0 250 55.964844 250 125 Z M 250 125 "/>
<path style=" stroke:none;fill-rule:nonzero;fill:url(#radial1);" d="M 250 125 C 250 194.035156 194.035156 250 125 250 C 55.964844 250 0 194.035156 0 125 C 0 55.964844 55.964844 0 125 0 C 194.035156 0 250 55.964844 250 125 Z M 250 125 "/>
<path style=" stroke:none;fill-rule:nonzero;fill:rgb(100%,100%,100%);fill-opacity:1;" d="M 147.5625 115.492188 L 136.9375 115.492188 L 136.9375 84.324219 L 183.25 84.324219 L 183.25 65.199219 L 136.960938 65.199219 L 136.960938 35.242188 L 113.070312 35.242188 L 113.070312 65.320312 L 102.992188 65.320312 C 81.210938 65.320312 63.050781 76.324219 63.050781 100.320312 C 63.050781 121.304688 78.976562 134.511719 102.425781 134.511719 L 113.050781 134.511719 L 113.050781 165.675781 L 66.75 165.675781 L 66.75 184.800781 L 113.039062 184.800781 L 113.039062 214.761719 L 136.929688 214.761719 L 136.929688 184.679688 L 147.007812 184.679688 C 168.789062 184.679688 186.949219 173.675781 186.949219 149.679688 C 186.949219 128.699219 171.023438 115.492188 147.5625 115.492188 Z M 113.039062 134.5 L 113.039062 115.5 L 105.5 115.5 C 95.382812 115.5 87.144531 111.238281 87.144531 99.875 C 87.144531 88.625 94.957031 84.351562 106 84.351562 L 113.070312 84.351562 L 113.070312 115.519531 L 136.929688 115.519531 L 136.929688 134.5 Z M 144 165.675781 L 136.929688 165.675781 L 136.929688 134.507812 L 144.5 134.507812 C 154.617188 134.507812 162.855469 138.769531 162.855469 150.132812 C 162.855469 161.425781 155.042969 165.675781 144 165.675781 Z M 144 165.675781 "/>
</g>
</svg>
